src/assets/outline/Dislike.svg

<svg width="24" height="24" viewBox="0 0 24 24"  xmlns="http://www.w3.org/2000/svg">
<path d="M10.8 22.1004C10.51 22.1004 10.22 22.0504 9.95004 21.9504C8.70004 21.5404 7.90004 20.1604 8.18004 18.8804L8.67004 15.7304C8.68004 15.6604 8.68004 15.5604 8.61004 15.4804C8.56004 15.4304 8.49004 15.4004 8.41004 15.4004H4.41004C3.43004 15.4004 2.58004 14.9904 2.08004 14.2804C1.59004 13.5904 1.49004 12.6804 1.81004 11.8004L4.20004 4.52039C4.57004 3.07039 6.12004 1.90039 7.72004 1.90039H11.52C12.08 1.90039 13.3 2.07039 13.95 2.72039L16.98 5.06039L16.06 6.25039L12.96 3.85039C12.71 3.60039 12.08 3.40039 11.52 3.40039H7.72004C6.82004 3.40039 5.85004 4.12039 5.65004 4.93039L3.23004 12.2804C3.07004 12.7204 3.10004 13.1204 3.31004 13.4104C3.53004 13.7204 3.93004 13.9004 4.42004 13.9004H8.42004C8.94004 13.9004 9.42004 14.1204 9.75004 14.5004C10.09 14.8904 10.24 15.4104 10.16 15.9504L9.66004 19.1604C9.54004 19.7204 9.92004 20.3504 10.46 20.5304C10.94 20.7104 11.58 20.4504 11.8 20.1304L15.9 14.0304L17.14 14.8704L13.04 20.9704C12.57 21.6704 11.68 22.1004 10.8 22.1004Z" />
<path d="M19.6201 18.1H18.6201C16.7701 18.1 15.8701 17.23 15.8701 15.45V5.65C15.8701 3.87 16.7701 3 18.6201 3H19.6201C21.4701 3 22.3701 3.87 22.3701 5.65V15.45C22.3701 17.23 21.4701 18.1 19.6201 18.1ZM18.6201 4.5C17.5301 4.5 17.3701 4.76 17.3701 5.65V15.45C17.3701 16.34 17.5301 16.6 18.6201 16.6H19.6201C20.7101 16.6 20.8701 16.34 20.8701 15.45V5.65C20.8701 4.76 20.7101 4.5 19.6201 4.5H18.6201Z" />
</svg>

<?xml version="1.0" encoding="UTF-8"?>
<svg width="24" height="24" viewBox="0 0 24 24" xmlns="http://www.w3.org/2000/svg">
 <path d="m10.8 22.1c-0.29 0-0.58-0.05-0.84996-0.15-1.25-0.41-2.05-1.79-1.77-3.07l0.49-3.15c0.01-0.07 0.01-0.17-0.06-0.25-0.05-0.05-0.12-0.08-0.2-0.08h-4c-0.98 0-1.83-0.41-2.33-1.12-0.49-0.69-0.59-1.6-0.27-2.48l2.39-7.28c0.37-1.45 1.92-2.62 3.52-2.62h3.8c0.56 0 1.78 0.17 2.43 0.82l3.03 2.34-0.92 1.19-3.1-2.4c-0.25-0.25-0.88-0.45-1.44-0.45h-3.8c-0.9 0-1.87 0.72-2.07 1.53l-2.42 7.35c-0.16 0.44-0.13 0.84 0.08 1.13 0.22 0.31 0.62 0.49 1.11 0.49h4c0.52 0 1 0.22 1.33 0.6 0.33996 0.39 0.48996 0.91 0.40996 1.45l-0.49996 3.21c-0.12 0.56 0.26 1.19 0.79996 1.37 0.48 0.18 1.12-0.08 1.34-0.4l4.1-6.1 1.24 0.84-4.1 6.1c-0.47 0.7-1.36 1.13-2.24 1.13z"/>
 <path d="m19.62 18.1h-1c-1.85 0-2.75-0.87-2.75-2.65v-9.8c0-1.78 0.9-2.65 2.75-2.65h1c1.85 0 2.75 0.87 2.75 2.65v9.8c0 1.78-0.9 2.65-2.75 2.65zm-1-13.6c-1.09 0-1.25 0.26-1.25 1.15v9.8c0 0.89 0.16 1.15 1.25 1.15h1c1.09 0 1.25-0.26 1.25-1.15v-9.8c0-0.89-0.16-1.15-1.25-1.15h-1z"/>
</svg>
